X:1
T:Aftenstemning
T:Aftenstemning
T:(E.B.)
T:F. A. Reissiger
C:F. A. Reissiger
%%score [ 1 2 3 ( 4 5 ) ]
L:1/8
Q:1/4=72
M:4/4
K:F
V:1 treble-8 nm="T1"
V:2 treble-8 nm="T2"
V:3 bass nm="B1"
V:4 bass nm="B2"
V:5 bass 
V:1
"^Andante sostenuto" !>!f3 e d2!<(! c3/2 A/!<)! |!>(! d2 c2!>)! !fermata!A2!p! c3/2 c/ | c6 ^c2 | %3
w: 1.O, hvor er den- ne|Af- ten smuk! Hvil- ken|Ro og|
w: 2.O, hvor er den- ne|Af- ten smuk! Hvil- ken|Blom- ster-|
 d6!<(! d3/2 d/!<)! |!>(! (f4 e2)!>)! d2 | c2 !>!d3 A d c | B2 z2 z2!<(! d3/2 d/!<)! | %7
w: Fred, hvil- ken|Ro _ og|Fred her ved Sø- ens|Bred! hvil- ken|
w: duft, hvil- ken|Blom- * ster-|duft i den mil- de|Luft! hvil- ken|
 (g4!>(! fe)!>)! (dc) | c2 (!>!d2- df d) B |"^dim." (A4 B2) E2 | F2 z2 z4 | z4!p! c2 c2 | %12
w: Ro _ _ og _|Fred her _ _ _ ved|Sø- * ens|Bred.|Fra det|
w: Blom- * * ster- *|duft i _ _ _ den|Mil- * de|Luft.|Sva- le|
 (c>d) (e f) (ef) (g a) | c4 z4 | z2!mf! d d!<(! (d=f) =e d!<)! | e2 (e e)"^ten." f2 z2 | %16
w: Fjer- * ne med sag- * te _|Klang|to- ner hen _ o- ver|Bøl- gen en Sang,|
w: Vin- * de _ suk- * ke og|dø,|Sko- ven kran- * ser den|stil- le _ Sø,|
!>(! f4 =B4!>)! | c2 c c!<(! c2 (d!<)!"^riten." e) | f8- | !fermata!f8 |] %20
w: to- ner|hen o- ver Bøl- gen en|Sang.|_|
w: Sko- ven|krand- ser den stil- le _|Sø.|_|
V:2
 !>![Ac]3 c B2!<(! G3/2 F/!<)! |!>(! G2 G2!>)! !fermata!F2 z2 | z2!p! G3/2 A/ B2 B2 | %3
w: 1.O, hvor er den- ne|Af- ten smuk!|Hvil- ken Ro og|
w: 2.O, hvor er den- ne|Af- ten smuk!|Hvil- ken Blom- ster-|
 A6!<(! A3/2 A/!<)! |!>(! (d4 c2)!>)! B2 | A2 !>!A3 D D ^F | G2 z2 z2!<(! B3/2 d/!<)! | %7
w: Fred, hvil- ken|Ro _ og|Fred her ved Sø- ens|Bred! hvil- ken|
w: duft, hvil- ken|Blom- * ster-|duft i den mil- de|Luft! hvil- ken|
 (c4!>(! G2)!>)! B2 | A2 (!>!B2- Bd B) G |"^dim." (F4 G2) B2 | A2 z2 z4 | z8 | z8 | z4!p! c2 c2 | %14
w: Ro _ og|Fred her _ _ _ ved|Sø- * ens|Bred.|||to- ner|
w: Blom- * ster|duft i _ _ _ den|Mil- * de|Luft.|||Sko- ven|
!mf! (c_e) (d c)!<(! =B2 B B!<)! | (_Bd) (c B)"^ten." A2 z2 |!>(! ^G4 G4!>)! | %17
w: hen _ o- ver, hen o- ver|Bøl- * gen en Sang,|to- ner|
w: krand- * ser, _ krand- ser den|stil- * le _ Sø,|Sko- ven|
 A2 =G A!<(! (BG) (A!<)!"^riten." B) | c2!<(! c3/2 c/ _e2!<)!!>(! (3(dc) =B!>)! | %19
w: hen o- ver Bøl- * gen en|Sang. O, hvor er den- * ne|
w: krand- ser den stil- * le _|Sø. O, hvor er den- * ne|
 c!>(! _B !fermata!A6!>)! |] %20
w: Af- ten smuk!|
w: Af- ten smuk!|
V:3
 !>!F,3 F, F,2!<(! E,3/2 F,/!<)! |!>(! F,2 E,2!>)! !fermata!C,2 z2 | z2!p! E,3/2 F,/ G,2 G,2 | %3
w: 1.O, hvor er den- ne|Af- ten smuk!|Hvil- ken Ro og|
w: 2.O, hvor er den- ne|Af- ten smuk!|Hvil- ken Blom- ster-|
 F,6!<(! F,3/2 F,/!<)! |!>(! (F,2 B,2)!>)! F,4 | F,2 !>!^F,3 F, G, D, | %6
w: Fred, hvil- ken|Ro _ og|Fred her ved Sø- ens|
w: duft, hvil- ken|Blom- * ster-|duft i den mil- de|
 D,2 z2 z2!<(! G,3/2 B,/!<)! |!>(! B,6!>)! G,2 | F,2 (!>!F,2- F,B, F,) D, |"^dim." (C,4 E,2) G,2 | %10
w: Bred! hvil- ken|Ro og|Fred her _ _ _ ved|Sø- * ens|
w: Luft! hvil- ken|Blom- ster|duft i _ _ _ den|Mil- * de|
 F,2 z2!p! C2 A,2 | (G,>F,) (E, F,) (G,B,) (A, G,) | A,4 C2 A,2 | %13
w: Bred. Fra det|Fjer- * ne med sag- * te _|Klang to- ner|
w: Luft. Sva- le|Vin- * de _ suk- * ke og|dø. Sko- ven|
 (G,>F,) E, F,!<(! (G,B,) (A, G,)!<)! |!mf! ^F,4!<(! G,2 G, G,!<)! | %15
w: hen _ o- ver Bøl- * gen en|Sang, hen o- ver|
w: krand- * dser den stil- * le _|Sø, krand- ser den|
 (G,B,) (A, G,)"^ten." =F,2 z2 |!>(! D,4 F,4!>)! | (F,A,) G, F,!<(! E,2 (F,!<)!"^riten." G,) | %18
w: Bøl- * gen en Sang,|to- ner|hen _ o- ver Bøl- gen en|
w: stil- * le _ Sø,|Sko- ven|kran- * ser den stil- le _|
 A,2!<(! A,3/2 A,/ C2!<)!!>(! (3(B,A,) ^G,!>)! | A,!>(! F, !fermata!F,6!>)! |] %20
w: Sang. O, hor er den- * ne|Af- ten smuk!|
w: Sø. O, hvor er den- * ne|Af- ten smuk!|
V:4
 !>!F,,3 A,, B,,2!<(! C,3/2 D,/!<)! |!>(! B,,2 C,2!>)! !fermata!F,,2 z2 | z8 | %3
w: 1.O, hvor er den- ne|Af- ten smuk!||
w: 2.O, hvor er den- ne|Af- ten smuk!||
 z2!p! D,3/2 D,/ D,2!<(! D,2!<)! |!>(! B,,6!>)! D,2 | F,2 !>!D,3 C, B,, A,, | %6
w: Hvil- ken stil- le|Ro og|Fred her ved Sø- ens|
w: Hvil- ken lif- lig|Blom- ster-|duft i den mil- de|
 G,,2 D,3/2 D,/ G,2!<(! F,2!<)! | (E,4!>(! C,2)!>)! E,2 | F,2 !>!B,,4 B,,2 |"^dim." C,6 C,2 | %10
w: Bred! hvil- ken stil- le|Ro _ og|Fred her ved|Sø- ens|
w: Luft! hvil- ken lif- lig|Blom- * ster-|duft i den|Mil- de|
 F,,2 z2!p! A,2 F,2 | (E,>D,) (C, D,) (E,G,) (F, E,) | F,4 A,2 F,2 | %13
w: Bred. Fra det|Fjer- * ne med sag- * te _|Klang to- ner|
w: Luft. Sva- le|Vin- * de _ suk- * ke og|dø. Sko- ven|
 (E,>D,) C, D,!<(! (E,G,) (F, _E,)!<)! |!mf! D,4!<(! G,,2 G,, G,,!<)! | C,2 (C, C,)"^ten." D,2 z2 | %16
w: hen _ o- ver Bøl- * gen en|Sang, hen o- ver|Bøl- gen en Sang,|
w: krand- * dser den stil- * le _|Sø, krand- ser den|stil- le _ Sø,|
!>(! =B,,4 D,4!>)! | (C,F,) E, D,!<(! C,2 (C,!<)!"^riten." C,) | %18
w: to- ner|hen _ o- ver Bøl- gen en|
w: Sko- ven|kran- * ser den stil- le _|
 C,2!<(! F,3/2 F,/ F,2!<)!!>(! (3:2:2F,2 F,!>)! | F,!>(! D, !fermata!C,6!>)! |] %20
w: Sang. O, hor er den- ne|Af- ten smuk!|
w: Sø. O, hvor er den- ne|Af- ten smuk!|
V:5
 x8 | x8 | x8 | x8 | x8 | x8 | x8 | x8 | x8 | x8 | x8 | x8 | x8 | x8 | x8 | x8 | x8 | %17
 x4 (C,B,,) (A,, G,,) | F,,8- | !fermata!F,,8 |] %20

